X:6032
T:Gan Ainm 
R:Hornpipe
S:
H:
N:
D:Irish Dancing Tape (P. Acc)
Z:Adrian Scahill
M:4/4
L:1/8
K:G
dBGg fAce|(3d^cd (3gfe dB (3GAB|cEGc BDGB|(3ABA (3GFE D2 (3Bc^c|\
dBGg fAce|(3d^cd (3gfe dB (3GAB|cEGc BDGB|(3ABA FA G2 (3Bc^c:||\
(3def (3ga^a bgdg|(3efg fe dB (3GAB|cEGc BDGB|Ad (3^cde d2 (3B=c^c|\
(3def (3ga^a bgdg|(3efg fe dB (3GAB|cEGc BDGB|(3ABA BA G2 (3Bc^c:||\
% These tunes have been compiled and transcribed by Adrian Scahill. 
% They are free for personal use only, and may not be published 
% or reproduced for profit. 
% 
% This file may not be included on a web page for download without
% permission from me. 
%
% I have not generally included ornamentation or variations - and each
% tune is notated as closely as possible to the player's performance. 
% Following from this I have not tried to 'correct' what may be variations,
% wayward versions, instrument-specific quirks etc. 
% 
% I have listed the sources that I know or remember, and have included
% a discography where relevant. 
%
% Last Updated: August 1999.
%
% Questions, Info: Email - adrian@continuo.freeserve.co.uk
% 
%
